img/label_2.svg

<svg width="98" height="29" viewBox="0 0 98 29" fill="none" xmlns="http://www.w3.org/2000/svg">
<path fill-rule="evenodd" clip-rule="evenodd" d="M65.3071 10.4032C69.1223 10.4032 72.4648 13.3424 72.4648 17.3167C72.4639 21.2353 69.3802 24.2312 65.7954 24.2312C64.2097 24.2312 63.0995 23.7685 62.0295 22.7196V28.8174H58.8197V17.5234C58.8197 13.2976 61.875 10.4032 65.3071 10.4032ZM63.7953 1.63385C64.597 0.834719 65.8012 0.597331 66.8463 1.0324C67.8913 1.46748 68.5713 2.4893 68.5691 3.62129C68.5654 3.85632 68.5325 4.09043 68.4694 4.31813L77.3152 11.2079C78.2808 10.4311 79.4346 9.92316 80.6596 9.73559V6.51017C79.7896 6.10356 79.2319 5.23183 79.2275 4.2715V4.19742C79.2275 2.82568 80.3395 1.71366 81.7113 1.71366H81.7853C83.157 1.71366 84.2691 2.82568 84.2691 4.19742V4.2715C84.2647 5.23183 83.707 6.10356 82.837 6.51017V9.73559C85.7589 10.1791 88.0963 12.3939 88.6964 15.2877C89.2965 18.1816 88.0326 21.1432 85.528 22.712C83.0234 24.2809 79.8071 24.1255 77.4653 22.3227L74.8443 24.9445C74.9129 25.1587 74.9493 25.3818 74.9522 25.6066C74.9512 26.8754 73.9222 27.9032 72.6535 27.9029C71.3848 27.9026 70.3563 26.8741 70.356 25.6054C70.3556 24.3367 71.3835 23.3077 72.6523 23.3067C72.8771 23.3097 73.1002 23.3461 73.3144 23.4146L75.9636 20.7644C74.2972 18.3895 74.2544 15.2367 75.8558 12.8174L67.1452 6.03921C66.7265 6.28259 66.2513 6.41187 65.7671 6.41415C64.6351 6.41267 63.6154 5.72934 63.1838 4.68288C62.7521 3.63642 62.9935 2.43297 63.7953 1.63385ZM33.8367 5.99074V12.0804C34.9085 11.0296 36.0168 10.5687 37.6044 10.5687C41.1892 10.5714 44.272 13.5673 44.272 17.485C44.272 21.4521 40.9221 24.3986 37.1142 24.3986C33.6812 24.3986 30.6268 21.5033 30.6268 17.2783V5.99074H33.8367ZM19.8111 10.4763V18.4013C19.8111 19.9456 21.0629 21.1974 22.6072 21.1974C24.1514 21.1974 25.4032 19.9456 25.4032 18.4013V10.4763H28.5966V18.4013C28.5966 21.7125 25.9124 24.3967 22.6012 24.3967C19.29 24.3967 16.6058 21.7125 16.6058 18.4013V10.4763H19.8111ZM94.0861 7.26737V10.9811H97.0308V13.796H94.0861V19.3515C94.0861 20.6062 94.6248 21.4256 96.5187 21.4256C96.8781 21.4228 97.2887 21.3981 97.6462 21.3734L96.8534 24.2925C96.4309 24.3675 96.0011 24.4022 95.5713 24.3949C92.8333 24.3949 90.836 22.9363 90.836 20.0419V8.72599L94.0861 7.26737ZM51.6125 5.88009C53.3528 5.88009 55.4781 6.85951 56.5261 8.27697L54.4274 10.7516C53.6071 9.8755 52.3542 9.15305 51.405 9.15305C50.228 9.15305 49.1535 9.66791 49.1535 11.293C49.148 14.3081 56.805 12.1471 56.805 19.1009C56.805 22.3236 54.1475 24.3849 50.8434 24.3849C48.6422 24.3849 46.8041 23.4557 45.3135 21.6267L47.6436 19.2043C48.5142 20.1846 49.1288 21.111 51.0245 21.111C52.2262 21.111 53.276 20.1562 53.276 19.0753C53.276 15.5692 45.6199 17.5573 45.6199 11.293C45.6199 7.91666 48.1347 5.88009 51.6125 5.88009ZM4.08824 5.88009V13.6304H11.2085V5.88009H14.5875V24.3812H11.2075V16.8824H4.0891V24.3812H0.710083V5.88009H4.08824ZM37.5843 13.8819C36.2828 13.8819 35.0802 14.5762 34.4294 15.7034C33.7787 16.8305 33.7787 18.2191 34.4294 19.3462C35.0802 20.4733 36.2828 21.1677 37.5843 21.1677C39.5962 21.1677 41.2271 19.5367 41.2271 17.5248C41.2271 15.5129 39.5962 13.8819 37.5843 13.8819ZM65.7822 13.6336C63.7703 13.6336 62.1392 15.2646 62.1392 17.2765C62.1392 19.2884 63.7703 20.9194 65.7822 20.9194C67.7941 20.9194 69.425 19.2884 69.425 17.2765C69.425 15.2646 67.7941 13.6336 65.7822 13.6336ZM81.7506 13.0945C80.4318 13.0583 79.1975 13.741 78.5274 14.8774C77.8574 16.0138 77.8574 17.4244 78.5274 18.5608C79.1975 19.6972 80.4318 20.38 81.7506 20.3437C83.7054 20.2716 85.2506 18.6689 85.2496 16.7164C85.2486 14.764 83.7018 13.1629 81.7506 13.0945Z" fill="#6D7D93"/>
</svg>

<svg width="98" height="29" fill="none" xmlns="http://www.w3.org/2000/svg"><path fill-rule="evenodd" clip-rule="evenodd" d="M65.307 10.403c3.815 0 7.158 2.94 7.158 6.914-.001 3.918-3.085 6.914-6.67 6.914-1.585 0-2.696-.463-3.766-1.511v6.097h-3.21V17.523c0-4.225 3.056-7.12 6.488-7.12Zm-1.512-8.77a2.798 2.798 0 0 1 4.774 1.988c-.004.235-.037.47-.1.697l8.846 6.89a7.034 7.034 0 0 1 3.345-1.472V6.51a2.484 2.484 0 0 1-1.432-2.239v-.074a2.484 2.484 0 0 1 2.483-2.483h.074a2.484 2.484 0 0 1 2.484 2.483v.074a2.484 2.484 0 0 1-1.432 2.24v3.225a7.067 7.067 0 1 1-5.372 12.587l-2.62 2.622c.068.214.104.437.107.662a2.298 2.298 0 1 1-2.3-2.3c.225.003.448.04.662.108l2.65-2.65a7.055 7.055 0 0 1-.108-7.948l-8.71-6.778a2.768 2.768 0 0 1-1.379.375 2.798 2.798 0 0 1-1.972-4.78ZM33.837 5.992v6.09c1.071-1.051 2.18-1.512 3.767-1.512 3.585.002 6.668 2.998 6.668 6.916 0 3.967-3.35 6.914-7.158 6.914-3.433 0-6.487-2.896-6.487-7.12V5.99h3.21ZM19.81 10.476v7.925a2.796 2.796 0 1 0 5.592 0v-7.925h3.194v7.925a5.995 5.995 0 1 1-11.991 0v-7.925h3.205Zm74.275-3.209v3.714h2.945v2.815h-2.945v5.556c0 1.254.539 2.074 2.433 2.074.36-.003.77-.028 1.127-.053l-.793 2.92a6.69 6.69 0 0 1-1.282.102c-2.738 0-4.735-1.459-4.735-4.353V8.726l3.25-1.459ZM51.612 5.88c1.74 0 3.866.98 4.914 2.397l-2.099 2.475c-.82-.877-2.073-1.599-3.022-1.599-1.177 0-2.252.515-2.252 2.14-.005 3.015 7.652.854 7.652 7.808 0 3.223-2.657 5.284-5.962 5.284-2.2 0-4.039-.93-5.53-2.758l2.33-2.423c.871.98 1.486 1.907 3.382 1.907 1.201 0 2.251-.955 2.251-2.036 0-3.506-7.656-1.518-7.656-7.782 0-3.376 2.515-5.413 5.992-5.413Zm-47.524 0v7.75h7.12V5.88h3.38v18.501h-3.38v-7.499H4.088v7.5H.71V5.88h3.378Zm33.496 8.002a3.643 3.643 0 1 0 0 7.286 3.643 3.643 0 0 0 0-7.286Zm28.198-.248a3.643 3.643 0 1 0 0 7.286 3.643 3.643 0 0 0 0-7.286Zm15.969-.54a3.626 3.626 0 1 0 0 7.25 3.626 3.626 0 0 0 0-7.25Z" fill="#6D7D93"/></svg>
